X: 21401
M: 2/4
L: 1/16
K: D
V: 1 name="1"
(fef)e d2f2 | A2de f2g2 | "_>"b4 (a2e2) | "_>"b4 (a2e2) |\
fefe d2f2 | A2de f2a2 | bbb2 dcBc | d4 z2 H|]
(AB).c.d (ef).g.f | e3dc3B | (B2A2) .F2.D2 | B2A2 c2d2 |\
(AB).c.d (ef).g.f | edcB A2Bc | dcdf e2a2 | d4 "^D.C."z2 |]
f2 |\
f2g2 f2b2 | f4 g2f2 | e2d2c2e2 | d2c2B2f2 |\
f2g2 f2b2 | g4 gfed | c2B2 ^ABcA | "^D.C."B6 |]


